X:2813
T:If I Had a Wife
T:Dennis Murphy's
T:Nellie Mahony's
O:england
R:slide
D:Chieftains: Live
M:6/8
W:If I had a wife, the plague of my life, I'll tell you what I would do:
W:I'd buy her a boat, and put her afloat, and paddle my own canoe.
K:G
A|:BAA A2d|edd d2B|AGA B2A|G3 G2A|
BAA A2d|edd d2B|AGA B2A|1 G3 G2A:|2 G3 gfe||
|:d2g geg|age dBd|e2a aba|g2a bge|
d2g geg|age dBd|efg aba|1 g3 gfe:|2 g3 g2||
"Version of 1st part"
A|:B2A ABd|e2d d2B|AGA B2A|G3 G2A|
~B3 ABd|e2d d2B|AGA B2A|1 G3 G2A:|2 G3 gfe||


